web/packages/design/src/ResourceIcon/assets/varicent-light.svg

<svg width="72" height="72" viewBox="0 0 72 72" fill="none" xmlns="http://www.w3.org/2000/svg">
<g clip-path="url(#clip0_16975_12140)">
<path fill-rule="evenodd" clip-rule="evenodd" d="M15.6726 27.0897C15.6769 28.6029 15.2214 30.0835 14.3638 31.3439C13.5062 32.6044 12.2849 33.5883 10.8545 34.171C9.4241 34.7538 7.84878 34.9093 6.32784 34.6179C4.80687 34.3265 3.40861 33.6012 2.30989 32.5339C1.21116 31.4665 0.461346 30.105 0.155276 28.6216C-0.150796 27.1381 0.000629068 25.5994 0.590395 24.1999C1.18016 22.8005 2.18178 21.6033 3.46855 20.7597C4.75533 19.9161 6.26946 19.464 7.81943 19.4607C8.85012 19.4532 9.87213 19.6452 10.8264 20.0257C11.7806 20.4062 12.6481 20.9676 13.3788 21.6774C14.1094 22.3872 14.6887 23.2314 15.0832 24.1611C15.4777 25.0908 15.6795 26.0876 15.677 27.0939" fill="#2B4FF4"/>
<path fill-rule="evenodd" clip-rule="evenodd" d="M29.5376 16.7893C29.5376 18.1274 29.1313 19.4355 28.3698 20.5482C27.6085 21.6609 26.5262 22.5282 25.2601 23.0405C23.9938 23.5528 22.6005 23.687 21.2561 23.4263C19.9118 23.1655 18.6768 22.5215 17.7073 21.5756C16.7378 20.6296 16.0774 19.4243 15.8095 18.112C15.5416 16.7996 15.6782 15.4392 16.2021 14.2026C16.7261 12.9661 17.6137 11.909 18.7529 11.165C19.8922 10.4209 21.2317 10.0233 22.6024 10.0225C23.5135 10.0199 24.4162 10.1931 25.2585 10.5322C26.1009 10.8713 26.8663 11.3695 27.5109 11.9983C28.1552 12.6272 28.6659 13.3741 29.0138 14.1963C29.3617 15.0185 29.5397 15.8997 29.5376 16.7893Z" fill="#2B4FF4"/>
<path fill-rule="evenodd" clip-rule="evenodd" d="M29.2256 37.433C29.2256 38.831 28.8011 40.1976 28.0056 41.3597C27.2103 42.522 26.0797 43.4279 24.7568 43.9629C23.434 44.4978 21.9784 44.6379 20.5741 44.3651C19.1698 44.0923 17.8798 43.4194 16.8674 42.4308C15.855 41.4423 15.1655 40.183 14.8862 38.812C14.6068 37.441 14.7502 36.0199 15.2981 34.7283C15.8461 33.4368 16.7739 32.333 17.9644 31.5564C19.1549 30.7798 20.5546 30.3652 21.9864 30.3652C22.9371 30.3652 23.8784 30.548 24.7568 30.9032C25.6351 31.2584 26.4333 31.779 27.1054 32.4353C27.7775 33.0917 28.3109 33.8708 28.6746 34.7283C29.0386 35.5858 29.2256 36.505 29.2256 37.433Z" fill="#2B4FF4"/>
<path fill-rule="evenodd" clip-rule="evenodd" d="M41.0981 26.8731C41.0981 28.0921 40.7278 29.2837 40.0342 30.2972C39.3405 31.3107 38.3545 32.1007 37.201 32.5671C36.0477 33.0336 34.7783 33.1557 33.5539 32.9178C32.3292 32.68 31.2045 32.0931 30.3217 31.2311C29.4389 30.3692 28.8374 29.271 28.594 28.0755C28.3503 26.88 28.4755 25.6407 28.9533 24.5146C29.4311 23.3884 30.2401 22.4259 31.2783 21.7486C32.3164 21.0714 33.5367 20.71 34.7854 20.71C35.6144 20.7098 36.4354 20.8691 37.2013 21.1787C37.9674 21.4884 38.6632 21.9424 39.2496 22.5147C39.8357 23.087 40.3007 23.7665 40.6179 24.5144C40.9352 25.2622 41.0983 26.0637 41.0981 26.8731Z" fill="#2B4FF4"/>
<path fill-rule="evenodd" clip-rule="evenodd" d="M41.7606 47.0888C41.7606 48.3675 41.3722 49.6175 40.6444 50.6808C39.9167 51.7439 38.8825 52.5727 37.6726 53.0622C36.4624 53.5517 35.1309 53.6795 33.8462 53.4301C32.5614 53.1807 31.3814 52.5649 30.4552 51.6605C29.529 50.7564 28.8985 49.6042 28.6428 48.3501C28.3874 47.0958 28.5184 45.7957 29.0198 44.6144C29.521 43.4328 30.3697 42.4232 31.4588 41.7127C32.5479 41.0021 33.8282 40.6231 35.1382 40.6231C36.0083 40.6218 36.8698 40.7883 37.6739 41.1128C38.4777 41.4375 39.2083 41.9138 39.8235 42.5142C40.4387 43.1148 40.9266 43.828 41.2589 44.6131C41.5912 45.398 41.7619 46.2392 41.7606 47.0888Z" fill="#2B4FF4"/>
<path fill-rule="evenodd" clip-rule="evenodd" d="M51.6906 36.1395C51.6909 37.2479 51.3545 38.3315 50.7239 39.253C50.0936 40.1748 49.1973 40.8932 48.1485 41.3174C47.0999 41.7417 45.9459 41.8529 44.8323 41.637C43.7191 41.4208 42.6962 40.8872 41.8934 40.1036C41.0907 39.32 40.5438 38.3216 40.3222 37.2346C40.1008 36.1476 40.2143 35.021 40.6487 33.997C41.0829 32.973 41.8186 32.0978 42.7625 31.482C43.7064 30.8663 44.816 30.5376 45.9513 30.5376C49.1292 30.58 51.6906 33.082 51.6906 36.1395Z" fill="#2B4FF4"/>
<path fill-rule="evenodd" clip-rule="evenodd" d="M53.2839 56.0091C53.2961 56.7893 53.1495 57.564 52.8523 58.2883C52.5551 59.0127 52.1132 59.672 51.5525 60.228C50.9916 60.784 50.3234 61.2257 49.5861 61.527C48.849 61.8284 48.0576 61.9835 47.2585 61.9835C46.4593 61.9835 45.668 61.8284 44.9309 61.527C44.1936 61.2257 43.5254 60.784 42.9645 60.228C42.4038 59.672 41.9619 59.0127 41.6647 58.2883C41.3674 57.564 41.2209 56.7893 41.2331 56.0091C41.2331 52.7763 43.9262 50.1045 47.2361 50.1045C48.0309 50.1022 48.8186 50.2534 49.5533 50.549C50.2883 50.845 50.956 51.2799 51.518 51.8286C52.0802 52.3773 52.5255 53.0291 52.8284 53.7467C53.1316 54.4643 53.2862 55.233 53.2839 56.0091Z" fill="#2B4FF4"/>
<path fill-rule="evenodd" clip-rule="evenodd" d="M60.5214 45.4077C60.523 46.397 60.2237 47.3643 59.6617 48.1876C59.1 49.0106 58.3006 49.6526 57.3648 50.0322C56.429 50.4115 55.3991 50.5115 54.4051 50.3193C53.4114 50.127 52.4982 49.6513 51.7814 48.9522C51.0643 48.2531 50.5761 47.3622 50.3782 46.3921C50.1799 45.4217 50.2813 44.416 50.6689 43.502C51.0565 42.588 51.713 41.8071 52.5556 41.2576C53.3981 40.7078 54.3885 40.4148 55.4017 40.415C56.7582 40.4161 58.059 40.9424 59.0187 41.8783C59.9784 42.8141 60.5188 44.0835 60.5214 45.4077Z" fill="#2B4FF4"/>
<path fill-rule="evenodd" clip-rule="evenodd" d="M59.3743 27.6082C59.3743 28.4265 59.1257 29.2265 58.6599 29.9069C58.1943 30.5873 57.5326 31.1176 56.7581 31.4308C55.9836 31.7439 55.1315 31.8259 54.3094 31.6662C53.4874 31.5066 52.7324 31.1125 52.1396 30.5339C51.547 29.9552 51.1432 29.218 50.9798 28.4154C50.8164 27.6128 50.9003 26.7809 51.2209 26.0249C51.5418 25.2688 52.085 24.6226 52.7818 24.168C53.4789 23.7134 54.298 23.4707 55.1364 23.4707C57.4759 23.5131 59.3743 25.3239 59.3743 27.6082Z" fill="#2B4FF4"/>
<path fill-rule="evenodd" clip-rule="evenodd" d="M66.6125 36.2254C66.6125 37.0437 66.3641 37.8437 65.8983 38.5241C65.4327 39.2045 64.7708 39.7348 63.9965 40.0479C63.2221 40.3612 62.3699 40.443 61.5479 40.2835C60.7259 40.1237 59.9706 39.7296 59.378 39.151C58.7854 38.5724 58.3817 37.8351 58.2183 37.0326C58.0546 36.23 58.1385 35.3981 58.4594 34.642C58.7802 33.886 59.3232 33.2398 60.0203 32.7852C60.717 32.3306 61.5365 32.0879 62.3746 32.0879C63.4985 32.0883 64.5762 32.5243 65.3709 33.3002C66.1656 34.076 66.6122 35.1282 66.6125 36.2254Z" fill="#2B4FF4"/>
<path fill-rule="evenodd" clip-rule="evenodd" d="M66.2187 20.5818C66.2187 21.2807 66.0064 21.964 65.6086 22.5451C65.2111 23.1263 64.6458 23.5792 63.9843 23.8467C63.3229 24.1142 62.5952 24.1842 61.8929 24.0478C61.1907 23.9114 60.5458 23.5749 60.0398 23.0806C59.5334 22.5864 59.1886 21.9567 59.0491 21.2712C58.9093 20.5857 58.981 19.8751 59.2549 19.2294C59.529 18.5837 59.993 18.0318 60.5882 17.6434C61.1834 17.2551 61.8833 17.0479 62.5991 17.0479C63.5577 17.052 64.4762 17.4256 65.154 18.0874C65.8318 18.7493 66.2145 19.6458 66.2187 20.5818Z" fill="#2B4FF4"/>
<path fill-rule="evenodd" clip-rule="evenodd" d="M72.0011 28.5115C72.0011 29.2104 71.7889 29.8936 71.3911 30.4748C70.9934 31.056 70.428 31.5089 69.7666 31.7764C69.1051 32.0439 68.3774 32.1138 67.6751 31.9775C66.9732 31.8411 66.3281 31.5046 65.822 31.0103C65.3156 30.5161 64.9709 29.8864 64.8313 29.2009C64.6916 28.5154 64.7633 27.8048 65.0374 27.1591C65.3112 26.5133 65.7752 25.9614 66.3704 25.5731C66.9656 25.1848 67.6655 24.9775 68.3813 24.9775C69.3402 24.9816 70.2584 25.3553 70.9362 26.0171C71.6143 26.679 71.997 27.5755 72.0011 28.5115Z" fill="#2B4FF4"/>
</g>
<defs>
<clipPath id="clip0_16975_12140">
<rect width="72" height="72" fill="white" transform="translate(0.000976562 0.00244141)"/>
</clipPath>
</defs>
</svg>

<svg xmlns="http://www.w3.org/2000/svg" width="72" height="72" fill="none" viewBox="0 0 72 72"><g fill="#2b4ff4" fill-rule="evenodd" clip-path="url(#a)" clip-rule="evenodd"><path d="M15.673 27.09a7.5 7.5 0 0 1-1.31 4.254 7.8 7.8 0 0 1-3.508 2.827 8 8 0 0 1-4.527.447 7.9 7.9 0 0 1-4.018-2.084 7.6 7.6 0 0 1-2.155-3.912A7.5 7.5 0 0 1 .59 24.2a7.7 7.7 0 0 1 2.879-3.44 7.97 7.97 0 0 1 4.35-1.3 8 8 0 0 1 3.007.566c.955.38 1.822.942 2.553 1.651s1.31 1.554 1.704 2.484c.395.93.597 1.927.594 2.933M29.538 16.79a6.65 6.65 0 0 1-1.168 3.758 6.9 6.9 0 0 1-3.11 2.493 7.1 7.1 0 0 1-4.004.385 7 7 0 0 1-3.549-1.85 6.7 6.7 0 0 1-1.898-3.464 6.6 6.6 0 0 1 .393-3.91 6.8 6.8 0 0 1 2.55-3.037 7.05 7.05 0 0 1 3.85-1.142 7.1 7.1 0 0 1 2.657.51 6.9 6.9 0 0 1 2.252 1.465 6.8 6.8 0 0 1 1.503 2.198c.348.822.526 1.704.524 2.593m-.312 20.644a6.95 6.95 0 0 1-1.22 3.927 7.2 7.2 0 0 1-3.25 2.603 7.4 7.4 0 0 1-4.182.402 7.3 7.3 0 0 1-3.707-1.934 7 7 0 0 1-1.98-3.619 6.9 6.9 0 0 1 .411-4.084 7.1 7.1 0 0 1 2.666-3.172 7.39 7.39 0 0 1 6.792-.653 7.3 7.3 0 0 1 2.35 1.532 7.1 7.1 0 0 1 1.569 2.293 6.9 6.9 0 0 1 .55 2.705m11.873-10.56a6.06 6.06 0 0 1-1.064 3.424 6.3 6.3 0 0 1-2.833 2.27 6.45 6.45 0 0 1-3.647.35 6.36 6.36 0 0 1-3.232-1.686 6.1 6.1 0 0 1-1.728-3.155 6.03 6.03 0 0 1 .36-3.561 6.2 6.2 0 0 1 2.324-2.766 6.45 6.45 0 0 1 5.923-.57 6.3 6.3 0 0 1 2.049 1.336 6.2 6.2 0 0 1 1.368 2c.317.747.48 1.549.48 2.358m.662 20.216a6.36 6.36 0 0 1-1.116 3.592 6.6 6.6 0 0 1-2.971 2.381 6.77 6.77 0 0 1-3.827.368 6.67 6.67 0 0 1-3.39-1.77 6.4 6.4 0 0 1-1.813-3.31 6.3 6.3 0 0 1 .377-3.736 6.5 6.5 0 0 1 2.439-2.901 6.74 6.74 0 0 1 3.68-1.09 6.8 6.8 0 0 1 2.535.49 6.6 6.6 0 0 1 2.15 1.401 6.5 6.5 0 0 1 1.435 2.1c.332.784.503 1.625.502 2.475M51.69 36.14a5.5 5.5 0 0 1-.966 3.113 5.7 5.7 0 0 1-2.575 2.064 5.87 5.87 0 0 1-3.317.32 5.8 5.8 0 0 1-2.939-1.533 5.57 5.57 0 0 1-1.57-2.87 5.5 5.5 0 0 1 .326-3.237 5.63 5.63 0 0 1 2.114-2.515 5.84 5.84 0 0 1 3.188-.944c3.178.042 5.74 2.544 5.74 5.601m1.593 19.871a5.8 5.8 0 0 1-.432 2.278 5.9 5.9 0 0 1-1.3 1.94 6 6 0 0 1-1.966 1.299 6.15 6.15 0 0 1-4.655 0 6 6 0 0 1-1.966-1.299 5.9 5.9 0 0 1-1.3-1.94 5.8 5.8 0 0 1-.432-2.279c0-3.233 2.693-5.904 6.003-5.904a6.2 6.2 0 0 1 2.317.444c.735.296 1.403.73 1.965 1.28a5.9 5.9 0 0 1 1.31 1.918c.304.717.458 1.486.456 2.262m7.237-10.601a4.9 4.9 0 0 1-.86 2.78 5.1 5.1 0 0 1-2.296 1.844c-.936.38-1.966.48-2.96.287a5.16 5.16 0 0 1-2.624-1.367 4.96 4.96 0 0 1-1.403-2.56 4.9 4.9 0 0 1 .29-2.89 5.03 5.03 0 0 1 1.888-2.244 5.2 5.2 0 0 1 2.846-.843 5.2 5.2 0 0 1 3.617 1.463 4.94 4.94 0 0 1 1.502 3.53m-1.147-17.8c0 .819-.248 1.619-.714 2.299a4.2 4.2 0 0 1-1.902 1.524 4.33 4.33 0 0 1-2.449.235 4.27 4.27 0 0 1-2.17-1.132 4.1 4.1 0 0 1-1.16-2.119 4.05 4.05 0 0 1 .242-2.39 4.16 4.16 0 0 1 1.56-1.857 4.3 4.3 0 0 1 2.355-.697c2.34.042 4.238 1.853 4.238 4.137m7.239 8.617a4.07 4.07 0 0 1-.715 2.3 4.2 4.2 0 0 1-1.901 1.523 4.33 4.33 0 0 1-2.45.235 4.27 4.27 0 0 1-2.169-1.132 4.1 4.1 0 0 1-1.16-2.118 4.04 4.04 0 0 1 .241-2.391 4.16 4.16 0 0 1 1.561-1.857 4.3 4.3 0 0 1 2.355-.697 4.3 4.3 0 0 1 2.996 1.212 4.1 4.1 0 0 1 1.242 2.925m-.394-15.643c0 .699-.213 1.382-.61 1.963a3.6 3.6 0 0 1-1.625 1.302 3.7 3.7 0 0 1-2.091.2 3.65 3.65 0 0 1-1.853-.966 3.5 3.5 0 0 1-.99-1.81 3.46 3.46 0 0 1 .205-2.042 3.56 3.56 0 0 1 1.333-1.586 3.7 3.7 0 0 1 2.011-.595 3.68 3.68 0 0 1 2.555 1.04 3.5 3.5 0 0 1 1.065 2.494m5.782 7.93c0 .698-.212 1.382-.61 1.963a3.6 3.6 0 0 1-1.624 1.301 3.7 3.7 0 0 1-2.092.201 3.65 3.65 0 0 1-1.853-.967 3.5 3.5 0 0 1-.99-1.81 3.46 3.46 0 0 1 .205-2.04 3.55 3.55 0 0 1 1.333-1.587 3.7 3.7 0 0 1 2.011-.596 3.68 3.68 0 0 1 2.555 1.04 3.5 3.5 0 0 1 1.065 2.495"/></g><defs><clipPath id="a"><path fill="#fff" d="M.001.002h72v72h-72z"/></clipPath></defs></svg>
